X:1
T:50 Melodische Übungsstücke
T:Carl Czerny
T:Etüde 10
T:Op. 840 
T:by Mutopia (2017/04/10-2177)
T:by Mutopia (2017/04/10-2177)
T:by Mutopia (2017/04/10-2177)
C:C. Czerny (1791–1857)
Z:by Mutopia (2017/04/10-2177)
%%score { 1 | ( 2 3 ) }
L:1/8
Q:1/4=121
M:4/4
K:G
V:1 treble nm="Piano" snm="Pno."
V:2 bass 
V:3 bass 
V:1
"^Allegro vivace"!f! z/ (!1!E/F/!3!G/ !1!A/B/^c/^d/ !5!e2 .B) z | %1
 z/ (!2!G/!1!A/B/ ^c/!4!^d/!1!e/f/ !3!g2 .e) z | z/ (B/^c/^d/ !1!e/f/g/a/ .b).[gb].[fa].[eg] | %3
 !2!!3![^df].!1!!4![eg].[df].[eg] .[df] (Bdf) | .!5!a (!4!a/g/ !>!f2) .!5!c' (!4!c'/b/ !>!a2) | %5
 .!1!g (!3!g/a/ !>!b2) .!2!f (!2!f/g/ !>!a2) | .g.e.g.e .b.B.^c.^d | .e.B.g.B .e z z2 :: %8
!f! [=dgb]4 z [dgb][dgb][dgb] | (!2!!4![fa]/d/e/f/ !1!g/a/b/^c'/ .d').a.f.d | %10
 [Beg]4 z [Beg][Beg][Beg] | (!2!!4![^df]/B/^c/d/ e/!1!f/^g/^a/!>(! .!5!b).!3!b.b.b!>)! | %12
!p! .!4!=c'(c'/b/ !>!!2!a2) .!4!a(!4!a/g/ !>!f2) | .!3!g(!1!g/!2!b/ (!>!!5!e'3) =d'/c'/ b/a/g/f/) | %14
 .b.b.g.!2!e .B.B.^c.^d | .e.B.g.B .e z z2!fine! :: %16
[K:E]!p!"^E DUR.(Mi majeur.)" (!3!g2 g2 !>!!5!b3 a/g/) | (!2!f>gf>f f4) | !2!f2 (f2 !>!!4!a3 g/f/ | %19
 !1!e>f e>f e4) |"_cresc." (!2!c'2 c'2 !4!e'3 d'/c'/ | !1!b2!>(! !3!g'>f' !1!e'>!4!d' c'>b)!>)! | %22
!p! (!1!a>b !3!a>b g>b g>!5!b) | !2!f4 z4 :: %24
!p! (3(.!5!b.!4!a.!3!f) (3.!2!d.!2!d.!2!d (3(.b.a.f) (3.d.d.d | (3(!1!egb (3!2!gbe' !>!b7/2 g/) | %26
 (3(baf) (3.d.d.d (3(baf) (3.d.d.d | (3(egb (3gbe' !>!!3!b4) |"_cresc." !2!b2 b2 (!>!!3!g'2 f'>e' | %29
 !4!d'>c'!>(! b>!1!a !3!g>!2!f !4!a>!>)!!5!c') |!p! (!4!b>g!1!e>)(!3!e d>af>d | e4) z4!D.C.! :| %32
V:2
 [E,G,B,]4 z [E,G,B,][E,G,B,][E,G,B,] | [E,G,B,]4 z [E,G,B,][E,G,B,][E,G,B,] | %2
 [E,G,B,]4 z .!1!E.^D.E | .!3!B,.^A,.B,.A, .B, z z2 | %4
[K:treble] ^D[FAB][FAB][FAB] D[FAB][FAB][FAB] | E[GB][GB][GB] A,[CF][CF][CF] | %6
 B,[EG][EG][EG] B,[FA][FA][FA] | [EG]2 [EG]2 .[EG]2 z2 :: %8
[K:bass] z/ (!5!G,,/A,,/B,,/ C,/!1!D,/!3!E,/!2!F,/) (!1!G,2 !2!B,2 | D2) D,2 z4 | %10
 z/ (!5!E,,/F,,/G,,/ A,,/!1!B,,/!3!^C,/^D,/) (!1!E,2 !2!G,2 | B,2) B,,2 z4 | %12
 ^D,[F,A,C][F,A,C][F,A,C] D,[F,A,B,][F,A,B,][F,A,B,] | E,[G,B,][G,B,][G,B,] A,,[C,F,][C,F,][C,F,] | %14
 B,,[E,G,][E,G,][E,G,] B,,[F,A,][F,A,][F,A,] | [E,G,]2 [E,G,]2 [E,G,] z z2 :: %16
[K:E][K:treble] (3!4!E!2!G!1!B (3EGB (3EGB (3EGB | (3!5!DAB (3DAB (3DAB (3DAB | %18
 (3B,DA (3B,DA (3B,DA (3B,DA | (3EGB (3EGB (3EGB (3EGB |[K:bass] (3A,CE (3A,CE (3A,CE (3A,CE | %21
 (3G,B,E (3G,B,E (3G,B,E (3G,B,E | (3D,F,B, (3D,F,B, (3E,G,B, (3E,G,B, | %23
 (3B,,D,F, (3B,F,D, B,, z z2 ::[K:treble] [B,FA]z[B,FA] z [B,FA]z[B,FA] z | %25
 [B,EG]z[B,EG] z [B,EG]z[B,EG] z | [B,FA]z[B,FA] z [B,FA]z[B,FA] z | [EG]2 [EG]2 [EG]2 [EG]2 | %28
 (3G,B,E (3G,B,E (3G,B,E (3G,B,E | (3G,CF (3G,CF (3G,CF (3G,CF | (3B,EG (3B,EG (3B,FA (3B,FA | %31
 (3EGB (3EGB E2 z2 :| %32
V:3
 x8 | x8 | x8 | x8 |[K:treble] ^D4 D4 | E4 A,4 | B,4 B,4 | x8 ::[K:bass] x8 | x8 | x8 | x8 | %12
 ^D,4 D,4 | E,4 A,,4 | B,,4 B,,4 | x8 ::[K:E][K:treble] E2 E2 E2 E2 | D2 D2 D2 D2 | %18
 B,2 B,2 B,2 B,2 | E2 E2 E2 E2 |[K:bass] A,2 A,2 A,2 A,2 | G,2 G,2 G,2 G,2 | D,2 D,2 E,2 E,2 | %23
 x8 ::[K:treble] x8 | x8 | x8 | x8 | G,2 G,2 G,2 G,2 | G,2 G,2 G,2 G,2 | B,2 B,2 B,2 B,2 | %31
 E2 E2 x4 :| %32

